X: 2
T: Pomp and Circumstance - 2nd Theme
N: From March No. 5 (in C Major) 1901
C: Edward Elgar
Z: 2007 John Chambers <jc@trillian.mit.edu>
M: 4/4
L: 1/8
K: G
[| "G"G4 "D7"FGA2 | "G/D"E4 D4 | "C"C4 "G/B"B,CD2 | "Am"A,4- "D/A"A,4 |
| "G/D"B,4 "A7/C#"^CD2E | "D"A4 "Bm/D"D4 | "Em7"G4 "A/E"GF2E | "D"D4- "D7"D4 |
| "G"g4 "D7"fga2 | "G/D"e4 d4 | "C"c4 "G/B"Bcd2 | "Am"A4- "D/A"A4 |
| "G/D"B4 "A7/C#"^cd2e | "D"a4  "G/D"d4 | "C/E"c'4 "D7"c'b2a | "G/D"b4- "B(m)"b4 |
| "C"e4 "D7/C"fg2a | "G/B"d4 "Em"g4 |1 "Am"G4 "D7"cB2A | "G"G4- G4 \
                                   :|2 "Am"g8 | "D7"c'2 b4 a2 | "G"g8 |]
